X:401
T: Entschwundenes Glck (124), 2. Melodie S.284
N: T0289V
O: Luxemburg
S: Singendes Volk, Esch-Alzette 1937 posth.]
N: Burglinster
R: Liebeslieder]
M: 3/4
L: 1/8
K: D
F2 | F2F2F2 | EFG2
EF | G2A2BA | A2z2
FG | A2F2BA | AEE2
Ad | cBA2G2 | FGF2

